X:3356
T:L\ae{}g di Maw (Blacksmith's Polka)
O:england
R:Polka
M:4/4
K:G
B2B2 d3B|G2G2 B4|ABcA F2A2|GABc dcBA|\
B2B2 d3B|G2G2 B4|
ABcA F2A2 |1 \
G2B2 G3A:|2 G2B2 G4 || \
K:D
|:ABAF ABAF|A2df a4|
g2gf e4| fgfe d4|\
ABAF ABFA|A2df a4| gagf egfe |1 \
d2f2 d4:|2 d2=c2 B2A2|]


